svgs/sharp-solid/sleigh.svg

<svg xmlns="http://www.w3.org/2000/svg" viewBox="0 0 640 512"><!--! Font Awesome Pro 6.4.0 by @fontawesome - https://fontawesome.com License - https://fontawesome.com/license (Commercial License) Copyright 2023 Fonticons, Inc. --><path d="M32 32H0V96H32V256c0 53 43 96 96 96v32h64V352H384v32h64V352c53 0 96-43 96-96V160h32V96H544 512 480 448V224H401.4c-80.5 0-155.3-41.5-198-109.7C173 65.7 120.9 35.2 64 32.2V32H55 32zM640 384V352H576v32 32H64 32v64H64 608h32V448 384z"/></svg>

<svg xmlns="http://www.w3.org/2000/svg" viewBox="0 0 640 512"><!--! Font Awesome Pro 6.6.0 by @fontawesome - https://fontawesome.com License - https://fontawesome.com/license (Commercial License) Copyright 2024 Fonticons, Inc. --><path d="M32 32L0 32 0 96l32 0 0 160c0 53 43 96 96 96l0 32 64 0 0-32 192 0 0 32 64 0 0-32c53 0 96-43 96-96l0-96 32 0 0-64-32 0-32 0-32 0-32 0 0 128-46.6 0c-80.5 0-155.3-41.5-198-109.7C173 65.7 120.9 35.2 64 32.2l0-.2-9 0L32 32zM640 384l0-32-64 0 0 32 0 32L64 416l-32 0 0 64 32 0 544 0 32 0 0-32 0-64z"/></svg>
